X:4021
T:Durham Rangers
R:Hornpipe
C:Trad.
O:Northumbria England
M:4/4
L:1/8
Q:1/4=120
K:D
FG|"D"ABAF A2 de|fgfe d3 A|"G"BcdB "D"ABAF|"Em"G2 E2 "A7"E2 FG|
"D"ABAF A2 de|fgfe "Bm"d2 dA|"Em"BcdB "A7"ABAG|"D"F2 D2 D2:|
|:ag|"D"fefg af"G"dg|"D"fefg a2 gf|"G"g2 bg "D"f2 af|"Em"g2 e2 "A7"e2 FG|
"D"ABAF A2 de|fgfe "Bm"d2 A2|"Em"BcdB "A7"ABAG|"D"F2 D2 D2:|
% --------------------------------- E ---------------------------------------

